<?xml version="1.0" encoding="UTF-8"?>
<map version="1.10" tiledversion="1.11.2" orientation="orthogonal" renderorder="right-down" width="20" height="20" tilewidth="16" tileheight="16" infinite="0" nextlayerid="4" nextobjectid="1">
 <tileset firstgid="1" source="spr_tileset_sunnysideworld_16px.tsx"/>
 <layer id="1" name="Suelo" width="20" height="20">
  <data encoding="csv">
651,651,651,651,651,651,651,651,651,651,651,651,651,651,651,651,651,651,651,651,
651,651,651,651,651,651,651,651,651,651,651,651,651,651,651,651,651,651,651,651,
651,651,651,651,651,651,651,651,651,651,651,651,651,651,651,651,651,651,651,651,
651,651,651,651,651,651,651,651,651,651,651,651,651,651,651,651,651,651,651,651,
651,651,651,651,651,651,651,651,651,651,651,651,651,651,651,651,651,651,651,651,
651,651,651,651,651,651,651,651,651,651,651,651,651,651,651,651,651,651,651,651,
651,651,651,651,651,651,651,651,651,651,651,651,651,651,651,651,651,651,651,651,
651,651,651,651,651,651,651,651,651,651,651,651,651,651,651,651,651,651,651,651,
651,651,651,651,651,651,651,651,651,651,651,651,651,651,651,651,651,651,651,651,
651,651,651,651,651,651,651,651,651,651,651,651,651,651,651,651,651,651,651,651,
651,651,651,651,651,651,651,651,651,651,651,651,651,651,651,651,651,651,651,651,
651,651,651,651,651,651,651,651,651,651,651,651,651,651,651,651,651,651,651,651,
651,651,651,651,651,651,651,651,651,651,651,651,651,651,651,651,651,651,651,651,
651,651,651,651,651,651,651,651,651,651,651,651,651,651,651,651,651,651,651,651,
651,651,651,651,651,651,651,651,651,651,651,651,651,651,651,651,651,651,651,651,
651,651,651,651,651,651,651,651,651,651,651,651,651,651,651,651,651,651,651,651,
651,651,651,651,651,651,651,651,651,651,651,651,651,651,651,651,651,651,651,651,
651,651,651,651,651,651,651,651,651,651,651,651,651,651,651,651,651,651,651,651,
651,651,651,651,651,651,651,651,651,651,651,651,651,651,651,651,651,651,651,651,
651,651,651,651,651,651,651,651,651,651,651,651,651,651,651,651,651,651,651,651
</data>
 </layer>
 <layer id="2" name="Alfombras" width="20" height="20">
  <data encoding="csv">
0,0,0,0,0,0,0,0,0,0,0,0,0,0,0,0,0,0,0,0,
0,0,0,0,0,0,0,0,0,0,0,0,0,0,0,0,0,0,0,0,
0,0,0,0,0,0,0,0,0,0,0,0,0,0,0,0,0,0,0,0,
0,0,0,0,0,0,0,0,0,0,0,0,0,0,0,0,0,0,0,0,
0,0,0,0,0,0,0,0,0,0,0,0,0,0,0,0,0,0,0,0,
0,0,0,0,0,0,0,0,0,0,0,0,0,0,0,0,0,0,0,0,
0,0,0,0,0,0,0,0,0,0,0,0,0,0,0,0,0,0,0,0,
0,0,0,0,0,0,0,0,0,0,0,0,0,0,0,0,0,0,0,0,
0,0,0,0,0,0,0,0,2281,2282,2283,0,0,0,0,0,0,0,0,0,
0,0,0,0,0,0,0,0,2345,2346,2347,0,0,0,0,0,0,0,0,0,
0,0,0,0,0,0,0,0,2409,2410,2411,0,0,0,0,0,0,0,0,0,
0,0,0,0,0,0,0,0,0,0,0,0,0,0,0,0,0,0,0,0,
0,0,0,0,0,0,0,0,0,0,0,0,0,0,0,0,0,0,0,0,
0,0,0,0,0,0,0,0,0,0,0,0,0,0,0,0,0,0,0,0,
0,0,0,0,0,0,0,0,0,0,0,0,0,0,0,0,0,0,0,0,
0,0,0,0,0,0,0,0,0,0,0,0,0,0,0,0,0,0,0,0,
0,0,0,0,0,0,0,0,0,0,0,0,0,0,0,0,0,0,0,0,
0,0,0,0,0,0,0,0,0,0,0,0,0,0,0,0,0,0,0,0,
0,0,0,0,0,0,0,0,0,0,0,0,0,0,0,0,0,0,0,0,
0,0,0,0,0,0,0,0,0,0,0,0,0,0,0,0,0,0,0,0
</data>
 </layer>
 <layer id="3" name="Objetos" width="20" height="20">
  <data encoding="csv">
0,0,0,0,0,0,0,0,0,0,0,0,0,0,0,0,0,0,0,0,
0,0,0,0,0,0,0,0,0,0,0,0,0,0,0,0,0,0,0,0,
0,0,0,0,0,0,0,0,0,0,0,0,0,0,0,0,0,0,0,0,
0,0,0,0,0,0,0,0,0,0,0,0,0,0,0,0,0,0,0,0,
0,0,0,0,0,0,0,0,0,0,0,0,0,0,0,0,0,0,0,0,
0,0,0,0,0,0,0,0,0,0,0,0,0,0,0,0,0,0,0,0,
0,0,0,0,0,0,0,0,0,0,0,0,0,0,0,0,0,0,0,0,
0,0,0,0,0,0,0,0,0,0,0,0,0,0,0,0,0,0,0,0,
0,0,0,0,0,0,2152,0,2290,2291,2292,0,0,0,0,0,0,0,0,0,
0,0,0,0,0,0,2216,0,2354,2355,2356,0,0,0,0,0,0,0,0,0,
0,0,0,0,0,0,0,0,2418,2419,2420,0,0,0,0,0,0,0,0,0,
0,0,0,0,0,0,0,0,0,0,0,0,0,0,0,0,0,0,0,0,
0,0,0,0,0,0,0,0,0,0,0,0,0,0,0,0,0,0,0,0,
0,0,0,0,0,0,0,0,0,0,0,0,0,0,0,0,0,0,0,0,
0,0,0,0,0,0,0,0,0,0,0,0,0,0,0,0,0,0,0,0,
0,0,0,0,0,0,0,0,0,0,0,0,0,0,0,0,0,0,0,0,
0,0,0,0,0,0,0,0,0,0,0,0,0,0,0,0,0,0,0,0,
0,0,0,0,0,0,0,0,0,0,0,0,0,0,0,0,0,0,0,0,
0,0,0,0,0,0,0,0,0,0,0,0,0,0,0,0,0,0,0,0,
0,0,0,0,0,0,0,0,0,0,0,0,0,0,0,0,0,0,0,0
</data>
 </layer>
</map>
